X:646
M:C
L:1/8
K:A
d/c/B/A/ B>c A/A/A A2||e2 f/e/d/c/ e<c a<c|B>c d/c/B/A/ F3 c|
e2 f/e/d/c/ e<a e>c|d/c/B/A/ B>c A2 A>c|Aa f/e/d/c/ d>f e/d/c/B/|
c>e d/c/B/A/ B/c/B/A/ F>B|A<EC<A, e<ca<c|B>c e/d/B/A/ A2A,||

